public/images/partners/Siemens.svg

<svg width="185" height="44" viewBox="0 0 185 44" fill="none" xmlns="http://www.w3.org/2000/svg">
<g id="Siemens-logo 1">
<g id="Ebene_x0020_1">
<path id="Vector" fillRule="evenodd" clipRule="evenodd" d="M176.247 9.10513V14.2346C173.59 13.2314 171.224 12.7241 169.153 12.7241C167.926 12.7241 166.95 12.9513 166.215 13.3904C165.481 13.8333 165.106 14.3784 165.106 15.022C165.106 15.8775 165.935 16.6384 167.605 17.3198L172.427 19.6669C176.327 21.5256 178.261 23.9938 178.261 27.0942C178.261 29.6721 177.235 31.7277 175.164 33.2495C173.109 34.7865 170.342 35.5474 166.897 35.5474C165.307 35.5474 163.88 35.4793 162.612 35.3354C161.343 35.1992 159.886 34.919 158.269 34.5177V29.1498C161.234 30.153 163.933 30.6602 166.363 30.6602C169.263 30.6602 170.705 29.8198 170.705 28.1239C170.705 27.2797 170.114 26.5983 168.915 26.0645L163.558 23.7818C161.582 22.8884 160.113 21.8057 159.151 20.5224C158.205 19.2278 157.724 17.7438 157.724 16.0479C157.724 13.6743 158.724 11.7626 160.7 10.3089C162.691 8.86656 165.333 8.14355 168.619 8.14355C169.687 8.14355 170.917 8.23816 172.28 8.41231C173.654 8.59781 174.975 8.82494 176.247 9.10513Z" fill="#009999"/>
<path id="Vector_2" fillRule="evenodd" clipRule="evenodd" d="M24.5362 9.10513V14.2346C21.8787 13.2314 19.5165 12.7241 17.4457 12.7241C16.2154 12.7241 15.2426 12.9513 14.5081 13.3904C13.7738 13.8333 13.399 14.3784 13.399 15.022C13.399 15.8775 14.2394 16.6384 15.9088 17.3198L20.7317 19.6669C24.6156 21.5256 26.5539 23.9938 26.5539 27.0942C26.5539 29.6721 25.5242 31.7277 23.4686 33.2495C21.3979 34.7865 18.6458 35.5474 15.1896 35.5474C13.5996 35.5474 12.1686 35.4793 10.9005 35.3354C9.63231 35.1992 8.18999 34.919 6.56225 34.5177V29.1498C9.53771 30.153 12.2368 30.6602 14.652 30.6602C17.5518 30.6602 18.9941 29.8198 18.9941 28.1239C18.9941 27.2797 18.4073 26.5983 17.2186 26.0645L11.8621 23.7818C9.87079 22.8884 8.40198 21.8057 7.45563 20.5224C6.49405 19.2278 6.02466 17.7438 6.02466 16.0479C6.02466 13.6743 7.01651 11.7626 9.0039 10.3089C10.98 8.86656 13.6261 8.14355 16.912 8.14355C17.9909 8.14355 19.2061 8.23816 20.584 8.41231C21.9469 8.59781 23.268 8.82494 24.5362 9.10513Z" fill="#009999"/>
<path id="Vector_3" fillRule="evenodd" clipRule="evenodd" d="M30.0631 8.62427H37.9183V35.0666H30.0631V8.62427Z" fill="#009999"/>
<path id="Vector_4" fillRule="evenodd" clipRule="evenodd" d="M63.2249 8.62427V13.5115H51.5539V19.3753H61.6766V23.7817H51.5539V29.9372H63.4634V35.0666H43.9941V8.62427H63.2249Z" fill="#009999"/>
<path id="Vector_5" fillRule="evenodd" clipRule="evenodd" d="M99.8957 8.62427V35.0666H92.5626V17.6264L84.9541 35.3089H80.4266L73.109 17.6264V35.0666H67.8054V8.62427H77.3943L83.9395 24.8114L90.7877 8.62427H99.8957Z" fill="#009999"/>
<path id="Vector_6" fillRule="evenodd" clipRule="evenodd" d="M125.191 8.62427V13.5115H113.584V19.3753H123.707V23.7817H113.584V29.9372H125.43V35.0666H105.961V8.62427H125.191Z" fill="#009999"/>
<path id="Vector_7" fillRule="evenodd" clipRule="evenodd" d="M152.754 8.62427V35.0666H144.422L135.072 18.1071V35.0666H129.772V8.62427H138.346L147.454 25.2923V8.62427H152.754Z" fill="#009999"/>
</g>
</g>
</svg>

<svg xmlns="http://www.w3.org/2000/svg" width="185" height="44" fill="none"><path fill="#099" d="M176.247 9.105v5.13c-2.657-1.004-5.023-1.51-7.094-1.51-1.227 0-2.203.226-2.938.665-.734.443-1.109.988-1.109 1.632 0 .855.829 1.616 2.499 2.298l4.822 2.347c3.9 1.859 5.834 4.327 5.834 7.427 0 2.578-1.026 4.634-3.097 6.155-2.055 1.537-4.822 2.298-8.267 2.298q-2.384.002-4.285-.212c-1.269-.136-2.726-.416-4.343-.817V29.15c2.965 1.003 5.664 1.51 8.094 1.51 2.9 0 4.342-.84 4.342-2.536 0-.844-.591-1.526-1.79-2.06l-5.357-2.282c-1.976-.894-3.445-1.976-4.407-3.26-.946-1.294-1.427-2.778-1.427-4.474 0-2.374 1-4.285 2.976-5.74q2.988-2.163 7.919-2.164c1.068 0 2.298.094 3.661.268 1.374.186 2.695.413 3.967.693m-151.711 0v5.13c-2.657-1.004-5.02-1.51-7.09-1.51-1.23 0-2.203.226-2.938.665-.734.443-1.109.988-1.109 1.632 0 .855.84 1.616 2.51 2.298l4.823 2.347c3.884 1.859 5.822 4.327 5.822 7.427 0 2.578-1.03 4.634-3.085 6.155-2.071 1.537-4.823 2.298-8.28 2.298q-2.385.002-4.289-.212c-1.268-.136-2.71-.416-4.338-.817V29.15c2.976 1.003 5.675 1.51 8.09 1.51 2.9 0 4.342-.84 4.342-2.536 0-.844-.587-1.526-1.775-2.06l-5.357-2.282c-1.991-.894-3.46-1.976-4.406-3.26-.962-1.294-1.431-2.778-1.431-4.474q0-3.56 2.979-5.74c1.976-1.441 4.622-2.164 7.908-2.164 1.079 0 2.294.094 3.672.268 1.363.186 2.684.413 3.952.693m5.527-.481h7.855v26.443h-7.855zm33.162 0v4.887H51.554v5.864h10.123v4.407H51.554v6.155h11.91v5.13h-19.47V8.624zm36.671 0v26.443h-7.333v-17.44l-7.609 17.682h-4.527l-7.318-17.683v17.44h-5.304V8.625h9.59l6.544 16.187 6.849-16.187zm25.295 0v4.887h-11.607v5.864h10.123v4.407h-10.123v6.155h11.846v5.13h-19.469V8.624zm27.563 0v26.443h-8.332l-9.35-16.96v16.96h-5.3V8.624h8.574l9.108 16.668V8.624z"/></svg>
